X: 147
T:Burning of the Piper's Hut, The
S:ALP Scots Music Group, Edinburgh
Z:https://nigelgatherer.com/
M:4/4
L:1/8
K:Bm
F2 | B>cd>e f4     | f>ef<a f2 ed | c2 A2 e2 A2  | c>de<f e2 d>c |
     B>cd>e f4     | f>ef<a f2 ed | c2 A2 f2 e>d | c2 B2  B2    :|
F2 | B>cd>e f>BB<B | a>BB<B f2 ed | c2 A2 e2 A2  | c>de<f e2 d>c |
     B>cd>e f>BB<B | a>BB<B f2 ed | c2 A2 f2 e>d | c2 B2  B2    :|

